X:1
T:Va, donna ingrata
T:Constantijn Huygens
T:Va, donna ingrata
C:Constantijn Huygens
%%score 1 2 { ( 3 5 ) | 4 }
L:1/8
Q:1/4=80
M:4/4
K:Eb
V:1 treble-8 nm="Tenor" snm="T"
V:2 treble transpose=-12 nm="Viola da Gamba" snm="V.Gam."
V:3 treble nm="Harpsichord" snm="Hpschd."
V:5 treble 
V:4 bass 
V:1
 z2 e4 BB | cc f3 BAA |[M:3/4] G2 G2 G2 | A2 A2 A2 | B2 B2 e2 | e4 ed |[M:4/4] e4 z edc | %7
w: Va, don- na in-|gra- ta, Va di- * spie-|ta- ta, Non|t'a- mo, non|t'a- mo, non|t'a- mo _|più: Non è più in-|
 c2 c2 z cde | f4 =A2 B2 | B6 =AB- | B8 :: z2 FF B4- | B2 AA _G2 GG | A2 A=A B2 B2 | c2 e2 d2 ee | %15
w: sa- no Quel cor ch'in|va- no Pia-|ga- to fù.|_|An- zi ca-|* ra, mia vi- ta, Per-|do- na, per- do- na a|sde- gni D'al- ma fe-|
 f4 g4 | z gfg ee f2- | f2 ee d2 d2 | z2 e4 dc | BB c4 BB | B2 (=A2 B4) |[M:3/4] f2 z2 BB | %22
w: ri- ta,|Che non son se- gni Di|_ pen- sier ri- o,|Son cal- di|pe- gni Del ar- dor|mi- o. _|Sù, dia- mo|
 B2 BB A>A | G2 GG GA | B3 B BB | c2 z2 cc | d2 z2 e2 | z2 f2 z/ g/f/g/ | d2 e2 e>(d | e6) :| %30
w: pa- ce a pian- ti e|gua- i, Che t'a- mo|più, che t'a- mo|più, t'a- mo|più, più,|più, più _ _|_ che ma- i.|_|
V:2
 E8 | A4 BB,CD |[M:3/4] E6 | C4 c2 | G2 A4 | B6 |[M:4/4] c4 G4 | A4 G4 | F8 | F8 | B,8 :: B,8 | %12
 B,4 E4 | C2 F2 D2 _D2 | C4 B,B G2 | F4 E4 | E2 B2 c2 F2 | C4 G4 | C4 D4 | E6 D2 | C4 B,4 | %21
[M:3/4] z2 B2 G2- | G4 F2 | C2 c2 BA | G2 E4 | A2 F4 | B2 G4 | D4 E2 | B2 B,4 | E6 :| %30
V:3
 [EGBe]4 [EG]4 | [EAc]2 [FAc]2 [DFB]4 |[M:3/4] [B,EG]4 z2 | [CEA]4 z2 | [EGB]2 z2 [EAc]2 | %5
 [FB]4 z2 |[M:4/4] [EGce]4 [EGB]4 | [CEA]4 z EFG | c4 c2 [FB]2 | [AB]2 G2 F2 E2 | D2 BA G2 F2 :: %11
 E2 D2 [EG]4 | [DF]4 [E_G]4 | [FA]2 F2 [FB]4 | [C=EGc]4 [DFB]2 [_EGB]2 | e2 d2 [Be]4 | %16
 z2 [EGBe]2 [EGc]2 [D=A]2 | [F!courtesy!_Ac]2 [Gc]2 [DGB]4 | [Gce]4 [DGB]4 | [B,EG]2 [CEG]4 [DG]2 | %20
 [CF]2 [CE]2 [F,B,D]4 |[M:3/4] z2 [DGB]4 | [EGB]4 [CFA]2 | [CEG]4 [B,DF]2 | [DG]2 [EGB]4 | %25
 [EAc]2 [FAc]4 | [DGB]4 [EGc]2 | [DFBd]4 [EGBe]2 | x6 | [GBe]6 :| %30
V:4
 E,8 | A,4 B,B,,C,D, |[M:3/4] E,6 | C,4 C2 | G,2 A,4 | B,6 |[M:4/4] C4 G,4 | A,4 G,4 | F,8 | F,8 | %10
 B,,8 :: B,,8 | B,,4 E,4 | C,2 F,2 D,2 _D,2 | C,4 B,,B, G,2 | F,4 E,4 | E,2 B,2 C2 F,2 | C,4 G,4 | %18
 C,4 D,4 | E,6 D,2 | C,4 B,,4 |[M:3/4] z2 B,2 G,2- | G,4 F,2 | C,2 C2 B,A, | G,2 E,4 | A,2 F,4 | %26
 B,2 G,4 | D,4 E,2 | B,2 B,,4 | E,6 :| %30
V:5
 x8 | x8 |[M:3/4] x6 | x6 | x6 | x6 |[M:4/4] x8 | x8 | A2 =A2 A2 D2 | D4 D2 C2 | B,CDE F4 :: %11
 [G,B,]2 B,2 B,4 | B,4 B,4 | C4 B,2 _D2 | x8 | [FAc]4 [EG]4 | x8 | x8 | x8 | x8 | x8 |[M:3/4] x6 | %22
 x6 | x6 | x6 | x6 | x6 | x6 | G2 AG F2 | E6 :| %30

